gama.ui.shared/icons_svg/dark/generic/menu.paste.svg

<svg height="25" viewBox="-526.774 -3167.932 25 25" width="25" xmlns="http://www.w3.org/2000/svg"><g fill="none"><path d="m-522.4341-3167.4315h16.32c2.1208 0 3.84 1.7192 3.84 3.84v16.32c0 2.1208-1.7192 3.84-3.84 3.84h-16.32c-2.1208 0-3.84-1.7192-3.84-3.84v-16.32c0-2.1208 1.7192-3.84 3.84-3.84z" fill="#666"/><path d="m-522.4341-3167.4315h16.32c2.1208 0 3.84 1.7192 3.84 3.84v16.32c0 2.1208-1.7192 3.84-3.84 3.84h-16.32c-2.1208 0-3.84-1.7192-3.84-3.84v-16.32c0-2.1208 1.7192-3.84 3.84-3.84z" stroke="#fff" stroke-linecap="round" stroke-linejoin="round" stroke-width=".25"/><path d="m-510.9057-3158.208h-4.63156c-.69894 0-1.26314.5643-1.26314 1.2632v7.5788c0 .699.5642 1.2633 1.26314 1.2633h5.89476c.6989 0 1.26314-.5643 1.26314-1.2633v-6.3156h-2.10524c-.2358 0-.4211-.1854-.4211-.4211zm3.36844 2.1306v6.7114c0 1.1623-.94314 2.1054-2.10524 2.1054h-5.89476c-1.1621 0-2.10524-.9431-2.10524-2.1054v-7.5788c0-1.1622.94314-2.1052 2.10524-2.1052h5.02736c.1095 0 .2274.0336.32.1263l2.5263 2.5263c.09266.0926.12634.2104.12634.32zm-2.52634-.4463h1.08634l-1.08634-1.0863zm-4.63155 2.5263c-.23579 0-.42105-.1853-.42105-.4211 0-.2357.18526-.421.42105-.421h4.21055c.23576 0 .421.1853.421.421 0 .2358-.18524.4211-.421.4211zm0 1.6842c-.23579 0-.42105-.1853-.42105-.421 0-.2358.18526-.4211.42105-.4211h4.21055c.23576 0 .421.1853.421.4211 0 .2357-.18524.421-.421.421zm0 1.6842c-.23579 0-.42105-.1852-.42105-.421 0-.236.18526-.421.42105-.421h3.36842c.23579 0 .42103.185.42103.421 0 .2358-.18524.421-.42103.421zm1.68421-10.9474c-.23579 0-.42106-.1852-.42106-.421s.18527-.4211.42106-.4211c1.1621 0 2.10524.9432 2.10524 2.1053v1.2632c0 .2358-.18524.421-.42103.421-.23577 0-.42107-.1852-.42107-.421v-1.2632c0-.6988-.5642-1.2632-1.26314-1.2632zm-5.89476-.8421c.2358 0 .4211.1853.4211.4211s-.1853.421-.4211.421c-.6989 0-1.26314.5644-1.26314 1.2632v7.579c0 .6989.56424 1.2632 1.26314 1.2632h1.2632c.23577 0 .42103.185.42103.421 0 .2358-.18526.421-.42103.421h-1.2632c-1.1621 0-2.10524-.943-2.10524-2.1052v-7.579c0-1.1621.94314-2.1053 2.10524-2.1053zm2.1053.4211c0 .2358-.1853.421-.42107.421-.23579 0-.42103-.1852-.42103-.421 0-.699.5642-1.2632 1.26314-1.2632h.8421c.69896 0 1.26316.5642 1.26316 1.2632 0 .2358-.18526.421-.42105.421s-.42105-.1852-.42105-.421-.18527-.4211-.42106-.4211h-.8421c-.23579 0-.42104.1853-.42104.4211z" fill="#c0e0ff"/></g></svg>

<?xml version="1.0" encoding="UTF-8" standalone="no"?>
<!DOCTYPE svg PUBLIC "-//W3C//DTD SVG 1.1//EN" "http://www.w3.org/Graphics/SVG/1.1/DTD/svg11.dtd">
<svg xmlns="http://www.w3.org/2000/svg" xmlns:xl="http://www.w3.org/1999/xlink" version="1.1" xmlns:dc="http://purl.org/dc/elements/1.1/" viewBox="-526.7741 -3167.9315 25 25" width="25" height="25">
  <defs/>
  <g id="SOURCES" stroke-opacity="1" fill="none" stroke="none" fill-opacity="1" stroke-dasharray="none">
    <title>SOURCES</title>
    <g id="SOURCES_Dark">
      <title>Dark</title>
      <g id="Graphic_11322">
        <path d="M -522.4341 -3167.4315 L -506.1141 -3167.4315 C -503.9933 -3167.4315 -502.2741 -3165.7123 -502.2741 -3163.5915 L -502.2741 -3147.2715 C -502.2741 -3145.1507 -503.9933 -3143.4315 -506.1141 -3143.4315 L -522.4341 -3143.4315 C -524.5549 -3143.4315 -526.2741 -3145.1507 -526.2741 -3147.2715 L -526.2741 -3163.5915 C -526.2741 -3165.7123 -524.5549 -3167.4315 -522.4341 -3167.4315 Z" fill="#666"/>
        <path d="M -522.4341 -3167.4315 L -506.1141 -3167.4315 C -503.9933 -3167.4315 -502.2741 -3165.7123 -502.2741 -3163.5915 L -502.2741 -3147.2715 C -502.2741 -3145.1507 -503.9933 -3143.4315 -506.1141 -3143.4315 L -522.4341 -3143.4315 C -524.5549 -3143.4315 -526.2741 -3145.1507 -526.2741 -3147.2715 L -526.2741 -3163.5915 C -526.2741 -3165.7123 -524.5549 -3167.4315 -522.4341 -3167.4315 Z" stroke="white" stroke-linecap="round" stroke-linejoin="round" stroke-width=".25"/>
      </g>
      <g id="Graphic_11321">
        <path d="M -510.9057 -3158.208 L -515.53726 -3158.208 C -516.2362 -3158.208 -516.8004 -3157.6437 -516.8004 -3156.9448 L -516.8004 -3149.366 C -516.8004 -3148.667 -516.2362 -3148.1027 -515.53726 -3148.1027 L -509.6425 -3148.1027 C -508.9436 -3148.1027 -508.37936 -3148.667 -508.37936 -3149.366 L -508.37936 -3155.6816 L -510.4846 -3155.6816 C -510.7204 -3155.6816 -510.9057 -3155.867 -510.9057 -3156.1027 Z M -507.53726 -3156.0774 L -507.53726 -3149.366 C -507.53726 -3148.2037 -508.4804 -3147.2606 -509.6425 -3147.2606 L -515.53726 -3147.2606 C -516.69936 -3147.2606 -517.6425 -3148.2037 -517.6425 -3149.366 L -517.6425 -3156.9448 C -517.6425 -3158.107 -516.69936 -3159.05 -515.53726 -3159.05 L -510.5099 -3159.05 C -510.4004 -3159.05 -510.2825 -3159.0164 -510.1899 -3158.9237 L -507.6636 -3156.3974 C -507.57094 -3156.3048 -507.53726 -3156.187 -507.53726 -3156.0774 Z M -510.0636 -3156.5237 L -508.97726 -3156.5237 L -510.0636 -3157.61 Z M -514.69515 -3153.9974 C -514.93094 -3153.9974 -515.1162 -3154.1827 -515.1162 -3154.4185 C -515.1162 -3154.6542 -514.93094 -3154.8395 -514.69515 -3154.8395 L -510.4846 -3154.8395 C -510.24884 -3154.8395 -510.0636 -3154.6542 -510.0636 -3154.4185 C -510.0636 -3154.1827 -510.24884 -3153.9974 -510.4846 -3153.9974 Z M -514.69515 -3152.3132 C -514.93094 -3152.3132 -515.1162 -3152.4985 -515.1162 -3152.7342 C -515.1162 -3152.97 -514.93094 -3153.1553 -514.69515 -3153.1553 L -510.4846 -3153.1553 C -510.24884 -3153.1553 -510.0636 -3152.97 -510.0636 -3152.7342 C -510.0636 -3152.4985 -510.24884 -3152.3132 -510.4846 -3152.3132 Z M -514.69515 -3150.629 C -514.93094 -3150.629 -515.1162 -3150.8142 -515.1162 -3151.05 C -515.1162 -3151.286 -514.93094 -3151.471 -514.69515 -3151.471 L -511.32673 -3151.471 C -511.09094 -3151.471 -510.9057 -3151.286 -510.9057 -3151.05 C -510.9057 -3150.8142 -511.09094 -3150.629 -511.32673 -3150.629 Z M -513.01094 -3161.5764 C -513.24673 -3161.5764 -513.432 -3161.7616 -513.432 -3161.9974 C -513.432 -3162.2332 -513.24673 -3162.4185 -513.01094 -3162.4185 C -511.84884 -3162.4185 -510.9057 -3161.4753 -510.9057 -3160.3132 L -510.9057 -3159.05 C -510.9057 -3158.8142 -511.09094 -3158.629 -511.32673 -3158.629 C -511.5625 -3158.629 -511.7478 -3158.8142 -511.7478 -3159.05 L -511.7478 -3160.3132 C -511.7478 -3161.012 -512.312 -3161.5764 -513.01094 -3161.5764 Z M -518.9057 -3162.4185 C -518.6699 -3162.4185 -518.4846 -3162.2332 -518.4846 -3161.9974 C -518.4846 -3161.7616 -518.6699 -3161.5764 -518.9057 -3161.5764 C -519.6046 -3161.5764 -520.16884 -3161.012 -520.16884 -3160.3132 L -520.16884 -3152.7342 C -520.16884 -3152.0353 -519.6046 -3151.471 -518.9057 -3151.471 L -517.6425 -3151.471 C -517.40673 -3151.471 -517.22147 -3151.286 -517.22147 -3151.05 C -517.22147 -3150.8142 -517.40673 -3150.629 -517.6425 -3150.629 L -518.9057 -3150.629 C -520.0678 -3150.629 -521.01094 -3151.572 -521.01094 -3152.7342 L -521.01094 -3160.3132 C -521.01094 -3161.4753 -520.0678 -3162.4185 -518.9057 -3162.4185 Z M -516.8004 -3161.9974 C -516.8004 -3161.7616 -516.9857 -3161.5764 -517.22147 -3161.5764 C -517.45726 -3161.5764 -517.6425 -3161.7616 -517.6425 -3161.9974 C -517.6425 -3162.6964 -517.0783 -3163.2606 -516.37936 -3163.2606 L -515.53726 -3163.2606 C -514.8383 -3163.2606 -514.2741 -3162.6964 -514.2741 -3161.9974 C -514.2741 -3161.7616 -514.45936 -3161.5764 -514.69515 -3161.5764 C -514.93094 -3161.5764 -515.1162 -3161.7616 -515.1162 -3161.9974 C -515.1162 -3162.2332 -515.30147 -3162.4185 -515.53726 -3162.4185 L -516.37936 -3162.4185 C -516.61515 -3162.4185 -516.8004 -3162.2332 -516.8004 -3161.9974 Z" fill="#c0e0ff"/>
      </g>
    </g>
  </g>
</svg>
